X: 18
T: Mons.r Talma's Favorite
%R: waltz
B: "Le Sylphe, Twenty Four Country Dances with Figures for the Year 1818", Button & Whitaker, p.9 #2
F: http://www.vwml.org/browse/browse-collections-dance-tune-books/browse-button1818
Z: 2014 John Chambers <jc:trillian.mit.edu>
N: The Figures by Mr WILSON.
M: 3/4
L: 1/8
K: C
% - - - - - - - - - - - - - - - - - - - - - - - - - - - - -
G2 |\
(ce) (Gc) (ec) | (eg) (ce) (ge) |\
(fa) (df) (Bd) | (ce) (Gc) (EG) |\
(ce) (Gc) (ec) | (eg) (ce) (ge) |\
(fa) (df) (Bd) | c2z2 :|
|: ge |\
g(fdBGF) | (EGcegc') |\
(gfdBGF) | (EGcegc') |\
(ce) (Gc) (ec) | (eg) (ce) (ge) |\
(fa) (df) (Bd) | c2z2 :|
|: c'b |\
(agfedc) | B2B2B2 |\
c2d2e2 | d2G2 .c'.b |\
.a.g.f.e.d.c | B2B2B2 |\
(cBcedB) | c2z2 :|
% - - - - - - - - - - Dance description - - - - - - - - - -
%%center WALTZ FIGURE        (Each strain repeated)
%%begintext align
%% The 3 Ladies & 3 Gent: set to each other with waltz
%% setting step |: swing with right hands round 2d Cu:
%% allemande |: & swing corners a la waltz |: .
%%endtext
%%center COUNTRY DANCE FIGURE        (Each strain repeated)
%%begintext align
%% Hands 3 round on Ladies side & 2d Lady passes under to her place
%% hands 3 round on Gent: side & 2d Gent: do the same |:
%% whole poussette |: & set contrary corners |: .
%%endtext
%%sep 1 1 450

%%sep 1 1 500
%%sep 1 1 500

